modules/zondicons/icons/clipboard.svg

<?xml version="1.0" encoding="UTF-8" standalone="no"?>
<svg width="20px" height="20px" viewBox="0 0 20 20" version="1.1" xmlns="http://www.w3.org/2000/svg" xmlns:xlink="http://www.w3.org/1999/xlink">
    <!-- Generator: Sketch 3.7.2 (28276) - http://www.bohemiancoding.com/sketch -->
    <title>clipboard</title>
    <desc>Created with Sketch.</desc>
    <defs></defs>
    <g id="Page-1" stroke="none" stroke-width="1" fill="none" fill-rule="evenodd">
        <g id="clipboard" fill="#000000">
            <path d="M12.9728369,2.59456737 C12.7749064,1.12946324 11.5193533,0 10,0 C8.48064666,0 7.2250936,1.12946324 7.02716314,2.59456737 L5,3 L5,4 L3.99406028,4 C2.89451376,4 2,4.8927712 2,5.99406028 L2,18.0059397 C2,19.1054862 2.8927712,20 3.99406028,20 L16.0059397,20 C17.1054862,20 18,19.1072288 18,18.0059397 L18,5.99406028 C18,4.89451376 17.1072288,4 16.0059397,4 L15,4 L15,3 L12.9728369,2.59456737 Z M5,6 L4,6 L4,18 L16,18 L16,6 L15,6 L15,7 L5,7 L5,6 Z M10,4 C10.5522847,4 11,3.55228475 11,3 C11,2.44771525 10.5522847,2 10,2 C9.44771525,2 9,2.44771525 9,3 C9,3.55228475 9.44771525,4 10,4 Z" id="Combined-Shape"></path>
        </g>
    </g>
</svg>

<svg width="20" height="20" viewBox="0 0 20 20" xmlns="http://www.w3.org/2000/svg"><path d="M12.973 2.595a3 3 0 0 0-5.946 0L5 3v1H3.994C2.894 4 2 4.893 2 5.994v12.012C2 19.106 2.893 20 3.994 20h12.012c1.1 0 1.994-.893 1.994-1.994V5.994C18 4.894 17.107 4 16.006 4H15V3l-2.027-.405zM5 6H4v12h12V6h-1v1H5V6zm5-2a1 1 0 1 0 0-2 1 1 0 0 0 0 2z" fill="#000" fill-rule="evenodd"/></svg>
